X:1
T:Rutherglen Bridge
M:6/8
L:1/8
R:March
B:William Gunn - The Caledonian Repository of Music
B:Adapted for the Bagpipes (Glasgow, 1848, p. 79)
Z:AK/Fiddler’s Companion
K:G
e|gdB B<BA|BdA B<Be|gdB B<BA|dBA AAe|
gdB B<BA|BdA BBg|fag f2e|dBA A<A:|
|:e|gag fed|efe edB|gag f2e|fdB B<Be|
gag fed|efe edB|Bag f2e|dBA A<A:|]

